assets/img/braze_icons/flag-02.svg

<svg fill="none" height="24" viewBox="0 0 24 24" width="24" xmlns="http://www.w3.org/2000/svg"><path d="m5 2c0-.55228-.44772-1-1-1s-1 .44772-1 1v13.0002c0-.0001 0 0 0 0v6.9998c0 .5523.44772 1 1 1 .55229 0 1-.4477 1-1v-6.4619c.06941-.0345.15123-.0716.24639-.1096.49412-.1977 1.36633-.4285 2.75361-.4285 1.28069 0 2.3605.4212 3.6286.9285l.0557.0223c1.219.4877 2.6223 1.0492 4.3157 1.0492 1.6127 0 2.7405-.2692 3.4964-.5715.377-.1508.6572-.3082.8552-.4402.0988-.0659.1766-.1251.2353-.1734.0412-.0339.0813-.0691.1192-.1067l.001-.0011c.1955-.1955.2931-.4518.2929-.7081v-10.999c0-.25592-.0976-.51184-.2929-.70711-.3832-.38317-.9999-.39038-1.3919-.02163-.008.00654-.0317.02537-.073.05294-.0833.05552-.2406.14814-.4886.24732-.4941.19765-1.3663.42848-2.7536.42848-1.2807 0-2.3605-.42124-3.6286-.92848l-.0557-.02229c-1.219-.48775-2.62225-1.04923-4.3157-1.04923-1.29175 0-2.2724.17269-3 .3968z" fill="#801ed7"/></svg>

<svg width="24" height="24" viewBox="0 0 24 24" fill="none" xmlns="http://www.w3.org/2000/svg">
<path d="M5 2C5 1.44772 4.55228 1 4 1C3.44772 1 3 1.44772 3 2V15.0002C3 15.0001 3 15.0002 3 15.0002V22C3 22.5523 3.44772 23 4 23C4.55229 23 5 22.5523 5 22L5 15.5381C5.06941 15.5036 5.15123 15.4665 5.24639 15.4285C5.74051 15.2308 6.61272 15 8 15C9.28069 15 10.3605 15.4212 11.6286 15.9285L11.6843 15.9508C12.9033 16.4385 14.3066 17 16 17C17.6127 17 18.7405 16.7308 19.4964 16.4285C19.8734 16.2777 20.1536 16.1203 20.3516 15.9883C20.4504 15.9224 20.5282 15.8632 20.5869 15.8149C20.6281 15.781 20.6682 15.7458 20.7061 15.7082L20.7071 15.7071C20.9026 15.5116 21.0002 15.2553 21 14.999V4C21 3.74408 20.9024 3.48816 20.7071 3.29289C20.3239 2.90972 19.7072 2.90251 19.3152 3.27126C19.3072 3.2778 19.2835 3.29663 19.2422 3.3242C19.1589 3.37972 19.0016 3.47234 18.7536 3.57152C18.2595 3.76917 17.3873 4 16 4C14.7193 4 13.6395 3.57876 12.3714 3.07152L12.3157 3.04923C11.0967 2.56148 9.69345 2 8 2C6.70825 2 5.7276 2.17269 5 2.3968V2Z" fill="#801ED7"/>
</svg>
